svg/azure-managed-identity.svg

<?xml version="1.0" encoding="UTF-8"?>
<svg xmlns="http://www.w3.org/2000/svg" xmlns:xlink="http://www.w3.org/1999/xlink" width="32" height="32" viewBox="0 0 32 32">
<defs>
<filter id="filter-remove-color" x="0%" y="0%" width="100%" height="100%">
<feColorMatrix color-interpolation-filters="sRGB" values="0 0 0 0 1 0 0 0 0 1 0 0 0 0 1 0 0 0 1 0" />
</filter>
<linearGradient id="linear-pattern-0" gradientUnits="userSpaceOnUse" x1="13.18" y1="13.01" x2="8.63" y2="4.38" gradientTransform="matrix(1.777778, 0.00266842, -0.00266842, 1.777778, 0, 0)">
<stop offset="0" stop-color="rgb(9.803922%, 53.333333%, 85.098039%)" stop-opacity="1"/>
<stop offset="0.9" stop-color="rgb(32.941176%, 68.235294%, 94.117647%)" stop-opacity="1"/>
</linearGradient>
<linearGradient id="linear-pattern-1" gradientUnits="userSpaceOnUse" x1="11.22" y1="10.5" x2="14.37" y2="15.93" gradientTransform="matrix(1.777778, 0.00266842, -0.00266842, 1.777778, 0, 0)">
<stop offset="0.1" stop-color="rgb(32.941176%, 68.235294%, 94.117647%)" stop-opacity="1"/>
<stop offset="0.29" stop-color="rgb(30.980392%, 67.058824%, 93.333333%)" stop-opacity="1"/>
<stop offset="0.51" stop-color="rgb(25.490196%, 63.529412%, 91.372549%)" stop-opacity="1"/>
<stop offset="0.74" stop-color="rgb(16.470588%, 57.647059%, 87.843137%)" stop-opacity="1"/>
<stop offset="0.88" stop-color="rgb(9.803922%, 53.333333%, 85.098039%)" stop-opacity="1"/>
</linearGradient>
<image id="source-24" x="0" y="0" width="32" height="32" xlink:href="data:image/png;base64,iVBORw0KGgoAAAANSUhEUgAAACAAAAAgCAYAAABzenr0AAAABmJLR0QA/wD/AP+gvaeTAAAAL0lEQVRYhe3OQQoAIAwDwer//6xP8FCKEGbOIWwVAABAuN0eNK3fAU/xAWf4P8AFTSQBCzZxtA4AAAAASUVORK5CYII="/>
<mask id="mask-0">
<g filter="url(#filter-remove-color)">
<use xlink:href="#source-24"/>
</g>
</mask>
<clipPath id="clip-0">
<rect x="0" y="0" width="32" height="32"/>
</clipPath>
<g id="source-23" clip-path="url(#clip-0)">
<path fill-rule="nonzero" fill="rgb(100%, 57.647059%, 0%)" fill-opacity="1" d="M 23.109375 30.222656 C 23.183594 30.300781 23.296875 30.320312 23.394531 30.277344 C 23.492188 30.234375 23.546875 30.132812 23.539062 30.027344 L 23.539062 25.476562 C 23.539062 25.386719 23.5 25.300781 23.429688 25.246094 C 23.351562 25.1875 23.242188 25.183594 23.160156 25.234375 C 23.078125 25.285156 23.03125 25.378906 23.039062 25.476562 L 23.039062 29.9375 C 23.003906 30.039062 23.03125 30.148438 23.109375 30.222656 "/>
</g>
<clipPath id="clip-1">
<rect x="0" y="0" width="32" height="32"/>
</clipPath>
<g id="source-26" clip-path="url(#clip-1)">
<g mask="url(#mask-0)">
<use xlink:href="#source-23"/>
</g>
</g>
<image id="source-41" x="0" y="0" width="32" height="32" xlink:href="data:image/png;base64,iVBORw0KGgoAAAANSUhEUgAAACAAAAAgCAYAAABzenr0AAAABmJLR0QA/wD/AP+gvaeTAAAAMElEQVRYhe3NsQ0AIAwDwVCx/7Z00IQRoijSXePuHQEAQLNV1N3Z/v2be4r+ABjsAVolAgJ7M7MBAAAAAElFTkSuQmCC"/>
<mask id="mask-1">
<g filter="url(#filter-remove-color)">
<use xlink:href="#source-41"/>
</g>
</mask>
<clipPath id="clip-2">
<rect x="0" y="0" width="32" height="32"/>
</clipPath>
<g id="source-40" clip-path="url(#clip-2)">
<path fill-rule="nonzero" fill="rgb(100%, 57.647059%, 0%)" fill-opacity="1" d="M 21.476562 19.378906 L 26.683594 19.378906 C 26.859375 19.378906 27.003906 19.523438 27.003906 19.699219 L 27.003906 19.75 C 27.003906 19.925781 26.859375 20.070312 26.683594 20.070312 L 21.476562 20.070312 C 21.300781 20.070312 21.15625 19.925781 21.15625 19.75 L 21.15625 19.699219 C 21.15625 19.519531 21.296875 19.378906 21.476562 19.378906 M 21.476562 19.378906 "/>
</g>
<clipPath id="clip-3">
<rect x="0" y="0" width="32" height="32"/>
</clipPath>
<g id="source-43" clip-path="url(#clip-3)">
<g mask="url(#mask-1)">
<use xlink:href="#source-40"/>
</g>
</g>
<image id="source-58" x="0" y="0" width="32" height="32" xlink:href="data:image/png;base64,iVBORw0KGgoAAAANSUhEUgAAACAAAAAgCAYAAABzenr0AAAABmJLR0QA/wD/AP+gvaeTAAAAKklEQVRYhe3NsQ0AQAgDMfj9Z0ZMQPMSFXZ5RRIBAMB1ubT7hl5LfwD8a7KnAQLghSPNAAAAAElFTkSuQmCC"/>
<mask id="mask-2">
<g filter="url(#filter-remove-color)">
<use xlink:href="#source-58"/>
</g>
</mask>
<clipPath id="clip-4">
<rect x="0" y="0" width="32" height="32"/>
</clipPath>
<g id="source-57" clip-path="url(#clip-4)">
<path fill-rule="nonzero" fill="rgb(100%, 57.647059%, 0%)" fill-opacity="1" d="M 21.476562 20.496094 L 26.683594 20.496094 C 26.859375 20.496094 27.003906 20.640625 27.003906 20.816406 L 27.003906 20.871094 C 27.003906 21.046875 26.859375 21.191406 26.683594 21.191406 L 21.476562 21.191406 C 21.300781 21.191406 21.15625 21.046875 21.15625 20.871094 L 21.15625 20.816406 C 21.15625 20.640625 21.300781 20.496094 21.476562 20.496094 M 21.476562 20.496094 "/>
</g>
<clipPath id="clip-5">
<rect x="0" y="0" width="32" height="32"/>
</clipPath>
<g id="source-60" clip-path="url(#clip-5)">
<g mask="url(#mask-2)">
<use xlink:href="#source-57"/>
</g>
</g>
</defs>
<path fill-rule="nonzero" fill="rgb(31.372549%, 90.196078%, 100%)" fill-opacity="1" d="M 2.042969 18.167969 L 15.875 27.148438 L 29.957031 18.152344 L 31.734375 20.195312 L 15.875 30.417969 L 0.265625 20.214844 Z M 2.042969 18.167969 "/>
<path fill-rule="nonzero" fill="rgb(100%, 100%, 100%)" fill-opacity="1" d="M 3.074219 17.03125 L 15.875 1.777344 L 28.941406 17.050781 L 15.875 25.296875 Z M 3.074219 17.03125 "/>
<path fill-rule="nonzero" fill="rgb(31.372549%, 90.196078%, 100%)" fill-opacity="1" d="M 15.875 1.777344 L 15.875 25.296875 L 3.074219 17.03125 Z M 15.875 1.777344 "/>
<path fill-rule="nonzero" fill="url(#linear-pattern-0)" d="M 15.875 1.777344 L 15.875 25.296875 L 28.941406 17.050781 Z M 15.875 1.777344 "/>
<path fill-rule="nonzero" fill="rgb(32.54902%, 69.411765%, 87.843137%)" fill-opacity="1" d="M 15.875 13.921875 L 28.941406 17.050781 L 15.875 25.296875 Z M 15.875 13.921875 "/>
<path fill-rule="nonzero" fill="rgb(61.176471%, 92.156863%, 100%)" fill-opacity="1" d="M 15.875 25.296875 L 3.074219 17.03125 L 15.875 13.921875 Z M 15.875 25.296875 "/>
<path fill-rule="nonzero" fill="url(#linear-pattern-1)" d="M 15.875 30.417969 L 31.734375 20.195312 L 29.957031 18.152344 L 15.875 27.148438 Z M 15.875 30.417969 "/>
<path fill-rule="nonzero" fill="rgb(100%, 79.215686%, 0%)" fill-opacity="1" d="M 29.011719 21.121094 C 29.40625 20.734375 29.625 20.207031 29.625 19.652344 C 29.625 19.101562 29.40625 18.574219 29.011719 18.1875 L 25.457031 14.632812 C 24.652344 13.828125 23.347656 13.828125 22.542969 14.632812 L 18.988281 18.1875 C 18.1875 19 18.1875 20.304688 18.988281 21.121094 L 21.957031 24.089844 C 22.0625 24.199219 22.117188 24.34375 22.117188 24.496094 L 22.117188 30.007812 C 22.109375 30.199219 22.1875 30.382812 22.328125 30.507812 L 23.679688 31.859375 C 23.765625 31.949219 23.882812 32.003906 24.007812 32.003906 C 24.132812 32.003906 24.25 31.949219 24.335938 31.859375 L 26.417969 29.777344 C 26.519531 29.675781 26.519531 29.507812 26.417969 29.40625 L 25.867188 28.851562 C 25.804688 28.800781 25.769531 28.722656 25.769531 28.640625 C 25.769531 28.558594 25.804688 28.480469 25.867188 28.425781 L 26.417969 27.875 C 26.523438 27.765625 26.523438 27.59375 26.417969 27.484375 L 25.867188 26.933594 C 25.804688 26.882812 25.769531 26.808594 25.769531 26.730469 C 25.769531 26.648438 25.804688 26.574219 25.867188 26.523438 L 26.417969 25.957031 C 26.519531 25.851562 26.519531 25.6875 26.417969 25.582031 L 25.636719 24.800781 L 25.636719 24.515625 Z M 24 15.484375 C 24.648438 15.484375 25.175781 16.007812 25.175781 16.65625 C 25.175781 17.304688 24.648438 17.832031 24 17.832031 C 23.351562 17.832031 22.824219 17.304688 22.824219 16.65625 C 22.824219 16.007812 23.351562 15.484375 24 15.484375 "/>
<use xlink:href="#source-26"/>
<use xlink:href="#source-43"/>
<use xlink:href="#source-60"/>
</svg>

<svg role="img" viewBox="0 0 32 32" xmlns="http://www.w3.org/2000/svg"><defs><clipPath id="azure-managed-identity_svg__a"><path d="M0 0h32v32H0z"/></clipPath><clipPath id="azure-managed-identity_svg__b"><path d="M0 0h32v32H0z"/></clipPath><clipPath id="azure-managed-identity_svg__e"><path d="M0 0h32v32H0z"/></clipPath><clipPath id="azure-managed-identity_svg__f"><path d="M0 0h32v32H0z"/></clipPath><clipPath id="azure-managed-identity_svg__i"><path d="M0 0h32v32H0z"/></clipPath><clipPath id="azure-managed-identity_svg__j"><path d="M0 0h32v32H0z"/></clipPath><g clip-path="url(#azure-managed-identity_svg__a)" id="azure-managed-identity_svg__d"><path d="M23.11 30.223a.251.251 0 0 0 .43-.196v-4.55a.29.29 0 0 0-.11-.23.24.24 0 0 0-.27-.013.26.26 0 0 0-.12.243v4.46a.27.27 0 0 0 .07.286" fill="rgb(100%, 57.647061%, 0%)"/></g><g clip-path="url(#azure-managed-identity_svg__b)" id="azure-managed-identity_svg__s" mask="url(#azure-managed-identity_svg__c)"><use href="#azure-managed-identity_svg__d"/></g><g clip-path="url(#azure-managed-identity_svg__e)" id="azure-managed-identity_svg__h"><path d="M21.477 19.379h5.207a.32.32 0 0 1 .32.32v.051c0 .176-.145.32-.32.32h-5.207a.32.32 0 0 1-.32-.32v-.05c0-.18.14-.321.32-.321m0 0" fill="rgb(100%, 57.647061%, 0%)"/></g><g clip-path="url(#azure-managed-identity_svg__f)" id="azure-managed-identity_svg__t" mask="url(#azure-managed-identity_svg__g)"><use href="#azure-managed-identity_svg__h"/></g><g clip-path="url(#azure-managed-identity_svg__i)" id="azure-managed-identity_svg__l"><path d="M21.477 20.496h5.207c.175 0 .32.145.32.32v.055c0 .176-.145.32-.32.32h-5.207a.32.32 0 0 1-.32-.32v-.055a.32.32 0 0 1 .32-.32m0 0" fill="rgb(100%, 57.647061%, 0%)"/></g><g clip-path="url(#azure-managed-identity_svg__j)" id="azure-managed-identity_svg__u" mask="url(#azure-managed-identity_svg__k)"><use href="#azure-managed-identity_svg__l"/></g><image height="32" href="data:image/png;base64,iVBORw0KGgoAAAANSUhEUgAAACAAAAAgCAYAAABzenr0AAAABmJLR0QA/wD/AP+gvaeTAAAANUlEQVRYhe3QwQkAMAgEQckj/XeclHAvEWTmLcdiFQAAwHI3HZzmgLjfHRCtD3jN+9H4h6MPXaoBEvyIdE8AAAAASUVORK5CYII=" id="azure-managed-identity_svg__n" width="32" x="0" y="0"/><image height="32" href="data:image/png;base64,iVBORw0KGgoAAAANSUhEUgAAACAAAAAgCAYAAABzenr0AAAABmJLR0QA/wD/AP+gvaeTAAAAMUlEQVRYhe3MsQ2AMADAsKDu/H9nD6AsCPUBxGIv2VIAAPzs+Oh5VmP7r+qq5lMAeN2VxQQCQ6R/3QAAAABJRU5ErkJggg==" id="azure-managed-identity_svg__o" width="32" x="0" y="0"/><image height="32" href="data:image/png;base64,iVBORw0KGgoAAAANSUhEUgAAACAAAAAgCAYAAABzenr0AAAABmJLR0QA/wD/AP+gvaeTAAAANElEQVRYhe3OIQ4AIAwEwcPw//8iikGCrGLGXFKxaQIAwO9GU3de2pVknW1/4NWtxx3gYxsMvQQDKu6VPgAAAABJRU5ErkJggg==" id="azure-managed-identity_svg__p" width="32" x="0" y="0"/><mask id="azure-managed-identity_svg__c"><g filter="url(#azure-managed-identity_svg__m)"><use href="#azure-managed-identity_svg__n"/></g></mask><mask id="azure-managed-identity_svg__g"><g filter="url(#azure-managed-identity_svg__m)"><use href="#azure-managed-identity_svg__o"/></g></mask><mask id="azure-managed-identity_svg__k"><g filter="url(#azure-managed-identity_svg__m)"><use href="#azure-managed-identity_svg__p"/></g></mask><linearGradient gradientTransform="rotate(.086)scale(1.77778)" gradientUnits="userSpaceOnUse" id="azure-managed-identity_svg__q" x1="13.18" x2="8.63" y1="13.01" y2="4.38"><stop offset="0" stop-color="rgb(9.803922%, 53.333336%, 85.09804%)"/><stop offset=".9" stop-color="rgb(32.941177%, 68.235296%, 94.117647%)"/></linearGradient><linearGradient gradientTransform="rotate(.086)scale(1.77778)" gradientUnits="userSpaceOnUse" id="azure-managed-identity_svg__r" x1="11.22" x2="14.37" y1="10.5" y2="15.93"><stop offset=".1" stop-color="rgb(32.941177%, 68.235296%, 94.117647%)"/><stop offset=".29" stop-color="rgb(30.980393%, 67.058825%, 93.333334%)"/><stop offset=".51" stop-color="rgb(25.490198%, 63.529414%, 91.37255%)"/><stop offset=".74" stop-color="rgb(16.470589%, 57.647061%, 87.843138%)"/><stop offset=".88" stop-color="rgb(9.803922%, 53.333336%, 85.09804%)"/></linearGradient><filter height="100%" id="azure-managed-identity_svg__m" width="100%" x="0%" y="0%"><feColorMatrix color-interpolation-filters="sRGB" values="0 0 0 0 1 0 0 0 0 1 0 0 0 0 1 0 0 0 1 0"/></filter></defs><path d="m2.043 18.168 13.832 8.98 14.082-8.996 1.777 2.043-15.859 10.223L.265 20.215Zm0 0" fill="rgb(31.37255%, 90.196079%, 100%)"/><path d="M3.074 17.031 15.875 1.777l13.066 15.274-13.066 8.246Zm0 0" fill="rgb(100%, 100%, 100%)"/><path d="M15.875 1.777v23.52l-12.8-8.266Zm0 0" fill="rgb(31.37255%, 90.196079%, 100%)"/><path d="M15.875 1.777v23.52l13.066-8.246Zm0 0" fill="url(#azure-managed-identity_svg__q)"/><path d="m15.875 13.922 13.066 3.129-13.066 8.246Zm0 0" fill="rgb(32.549021%, 69.411767%, 87.843138%)"/><path d="m15.875 25.297-12.8-8.266 12.8-3.11Zm0 0" fill="rgb(61.176473%, 92.156863%, 100%)"/><path d="m15.875 30.418 15.86-10.223-1.778-2.043-14.082 8.996Zm0 0" fill="url(#azure-managed-identity_svg__r)"/><path d="M29.012 21.121a2.05 2.05 0 0 0 .613-1.469c0-.55-.219-1.078-.613-1.465l-3.555-3.554a2.06 2.06 0 0 0-2.914 0l-3.555 3.555c-.8.812-.8 2.117 0 2.933l2.969 2.969a.58.58 0 0 1 .16.406v5.512a.64.64 0 0 0 .211.5l1.352 1.351c.086.09.203.145.328.145a.46.46 0 0 0 .328-.145l2.082-2.082a.264.264 0 0 0 0-.37l-.55-.555a.27.27 0 0 1-.098-.211c0-.082.035-.16.097-.215l.551-.551a.28.28 0 0 0 0-.39l-.55-.551a.263.263 0 0 1 0-.41l.55-.567a.27.27 0 0 0 0-.375l-.781-.781v-.285ZM24 15.484a1.174 1.174 0 0 1 0 2.348 1.174 1.174 0 0 1 0-2.348" fill="rgb(100%, 79.215688%, 0%)"/><use href="#azure-managed-identity_svg__s"/><use href="#azure-managed-identity_svg__t"/><use href="#azure-managed-identity_svg__u"/></svg>
